svgs/sharp-thin/baht-sign.svg

<svg xmlns="http://www.w3.org/2000/svg" viewBox="0 0 320 512"><!--! Font Awesome Pro 6.6.0 by @fontawesome - https://fontawesome.com License - https://fontawesome.com/license (Commercial License) Copyright 2024 Fonticons, Inc. --><path d="M144 0L128 0l0 64L32 64 16 64l0 16 0 168 0 16 0 168 0 16 16 0 96 0 0 64 16 0 0-64 60 0c55.2 0 100-44.8 100-100c0-48.6-34.7-89.1-80.7-98.1C252.5 232.4 272 200.5 272 164c0-55.2-44.8-100-100-100l-28 0 0-64zM128 80l0 168-96 0L32 80l96 0zm16 168l0-168 28 0c46.4 0 84 37.6 84 84s-37.6 84-84 84l-28 0zm-16 16l0 168-96 0 0-168 96 0zm16 168l0-168 28 0 32 0c46.4 0 84 37.6 84 84s-37.6 84-84 84l-60 0z"/></svg>

<svg xmlns="http://www.w3.org/2000/svg" viewBox="0 0 320 512"><!--! Font Awesome Pro 6.5.2 by @fontawesome - https://fontawesome.com License - https://fontawesome.com/license (Commercial License) Copyright 2024 Fonticons, Inc. --><path d="M144 0H128V64H32 16V80 248v16V432v16H32h96v64h16V448h60c55.2 0 100-44.8 100-100c0-48.6-34.7-89.1-80.7-98.1C252.5 232.4 272 200.5 272 164c0-55.2-44.8-100-100-100H144V0zM128 80V248H32V80h96zm16 168V80h28c46.4 0 84 37.6 84 84s-37.6 84-84 84H144zm-16 16V432H32V264h96zm16 168V264h28 32c46.4 0 84 37.6 84 84s-37.6 84-84 84H144z"/></svg>
